X:457
T: ICH WOLLT ES WAERE NACHT
N: F0859
O: Europa, Mitteleuropa, Deutschland
R: erzaehlendes Volks - Lied, Liebe
M: 3/8
L: 1/16
K: D
A2 | A2F2FE | D4
FG | A2A2BG | F4z2 |
ddB2d2 | BAA4 |
BBG2B2 | GFF4 |
FDA2A2 | D4

@@@ Tune index: 5888
